icons/delphiproject.svg

<svg width="16" height="16" viewBox="0 0 16 16" fill="none" xmlns="http://www.w3.org/2000/svg">
<path d="M9.5 15C9.05661 13.3636 7.71695 12 5.5 12C2.91367 10.2213 4.0211 6 8.01161 6C12.0021 6 11.9446 9.6996 12 10.5H11.5C11.5 10.5 11.5 10 11 9.5C10.5 9 8.82486 9.09912 7.55555 9.27273V10C7.81419 10 10.6079 9.86364 11.5 11.5V14L9.5 15Z" fill="#F04B8A"/>
<path d="M8 2.13866C8.39178 2.11181 8.78973 2.10959 9.1875 2.12889L9.5 3.99998L10.0947 2.21288C10.4004 2.25414 10.7032 2.30792 11 2.37498V4.49998L12.0869 2.68748C12.8065 2.94239 13.4615 3.27809 14 3.68748L11.6279 6.39256C10 4.99973 6.723 5.16361 5.5 5.99998C3.91595 7.08327 3.5 8.49999 3.5 9.99998H3L2.02344 9.34862C2.00213 9.15882 1.98909 8.95962 1.98633 8.75291L3 8.49998L2.00391 8.16795C2.03015 7.78948 2.08481 7.39593 2.17383 6.99998H3.5L2.3291 6.41405C2.40825 6.15744 2.50086 5.90215 2.60938 5.65233L4 5.99998L2.95898 4.95897C3.15833 4.61584 3.39174 4.29125 3.65918 3.99413L5 4.99998L4.22656 3.45311C4.31857 3.37818 4.41339 3.30592 4.51172 3.23729C4.71935 3.09238 4.9419 2.96245 5.17676 2.84666L6.5 4.49998L6.16016 2.46288C6.41943 2.38519 6.68761 2.32168 6.96191 2.27049L8 3.99998V2.13866Z" fill="#F04B8A"/>
</svg>

<svg xmlns="http://www.w3.org/2000/svg" width="16" height="16" fill="none" viewBox="0 0 16 16"><path fill="#F04B8A" d="M9.5 15c-.443-1.636-1.783-3-4-3-2.586-1.779-1.479-6 2.512-6S11.945 9.7 12 10.5h-.5s0-.5-.5-1-2.175-.4-3.444-.227V10c.258 0 3.052-.136 3.944 1.5V14z"/><path fill="#F04B8A" d="M8 2.139q.59-.04 1.188-.01L9.5 4l.595-1.787q.459.061.905.162V4.5l1.087-1.813c.72.255 1.374.591 1.913 1l-2.372 2.706C10 5 6.723 5.163 5.5 6c-1.584 1.083-2 2.5-2 4H3l-.977-.651a6 6 0 0 1-.037-.596L3 8.5l-.996-.332c.026-.379.08-.772.17-1.168H3.5l-1.17-.586q.116-.386.28-.762L4 6 2.959 4.959c.2-.343.433-.668.7-.965L5 5l-.773-1.547a4.8 4.8 0 0 1 .95-.606L6.5 4.5l-.34-2.037q.39-.116.802-.193L8 4z"/></svg>
